packages/tokens/icons/learning/size16Px.svg

<svg viewBox="0 0 16 16" fill="none" xmlns="http://www.w3.org/2000/svg" width="1em" height="1em"><path d="M2.09749 7.40434C1.75942 7.27979 1.78267 6.79403 2.1311 6.70234L7.81248 5.20724C7.9354 5.17489 8.0646 5.17489 8.18752 5.20724L13.8689 6.70234C14.2173 6.79403 14.2406 7.27979 13.9025 7.40434L8.25473 9.4851C8.09031 9.54567 7.90969 9.54567 7.74527 9.4851L2.09749 7.40434Z" stroke="currentColor" stroke-linejoin="round"/><path d="M13.4445 7.25928V9.73415" stroke="currentColor" stroke-linecap="round"/><path d="M5.05243 8.84229L5.05243 11.7897C5.05243 12.1966 5.38232 12.5265 5.78927 12.5265H10.2103C10.6173 12.5265 10.9472 12.1966 10.9472 11.7897V8.84229" stroke="currentColor" stroke-linecap="round" stroke-linejoin="round"/></svg>

<svg xmlns="http://www.w3.org/2000/svg" fill="none" viewBox="0 0 16 16" width="1em" height="1em"><path stroke="currentColor" stroke-linejoin="round" d="M2.097 7.404a.368.368 0 0 1 .034-.702l5.681-1.495a.737.737 0 0 1 .376 0l5.68 1.495a.368.368 0 0 1 .034.702L8.255 9.485a.737.737 0 0 1-.51 0l-5.648-2.08Z"/><path stroke="currentColor" stroke-linecap="round" d="M13.444 7.26v2.474"/><path stroke="currentColor" stroke-linecap="round" stroke-linejoin="round" d="M5.052 8.842v2.948c0 .407.33.737.737.737h4.421c.407 0 .737-.33.737-.737V8.842"/></svg>
